X: 29354
T: Newmarket
R: polka
M: 2/4
K: Amajor
B/|:Ad df|ed Bd|Ad de|fe e>A|
Ad df|ed B/c/d|Ad de|1 fd d/c/d/B/:|2 fd d3/2||
|:e/|fa gf|ed Bd|Ad de|fe e2|
f/g/a gf|ed B/c/d/B/|Ad de|fd d3/2:|

